X:1
T:Title
%%score ( 1 2 3 ) { ( 4 5 ) | ( 6 7 ) }
L:1/8
M:4/4
K:Bb
V:1 treble nm="Grand Piano, Unnamed-000"
V:2 treble 
V:3 treble 
V:4 bass nm="Choir Pad, Unnamed-001"
V:5 bass 
V:6 bass 
V:7 bass 
V:1
 z4 d4 | z2 .A2 z4 | D2 [DG]2 [EF]4 | C2 [DG]2 [DF]4 | [Fc]3 [Gc] [Ac]2 F2 | G4 z4 | %6
 [Ee]2 [Be]2 e3 d | [Gc]2 [Fd][Ec] [DB]2 [B,F]2 | D2 [DG]2 [EF]4 | C2 [DG]2 [DF]4 | %10
 F2 z B [Ee]2 dc | [Ec]4 [DB]4- | [DB]4 z4 |] %13
V:2
 [Dd]2 [Dd]2 D2 z c | [EB]2 E-[EG] [EF]2 [DF]2 | x8 | x8 | x8 | F2 =E2 F4 | z4 A2 G2 | x8 | x8 | %9
 x8 | B4 z4 | x8 | x8 |] %13
V:3
 z4 z2 D2 | x8 | x8 | x8 | x8 | x8 | x8 | x8 | x8 | x8 | z2 F2 z2 E2 | x8 | x8 |] %13
V:4
 z4 z2 ^F,2 | G,2 A,2 B,2 B,2 | B,2 B,2 A,4 | A,2 B,2 F,4 | A,3 B, C2 B,2 | B,4 A,4 | z4 z2 B,2 | %7
 B,2 A,2 B,2 B,2 | A,2 B,2 A,4 | A,2 B,2 F,2 B,2 | .D4 B,2 B,2 | A,4 B,4- | B,4 z4 |] %13
V:5
 F,2 F,2 F,2 z B,, | x8 | x8 | x8 | x8 | x8 | G,2 D2 C2 z C, | x8 | x8 | x8 | x8 | x8 | x8 |] %13
V:6
 B,,2 B,,2 .B,,4 | B,,2 B,,2 B,,2 D,2 | F,2 D,2 C,4 | F,,2 F,2 B,,4 | C,3 C, C,2 C,2 | C,4 F,,4 | %6
 C,2 C,2 .C,4 | F,2 F,,2 B,,2 D,2 | F,2 D,2 C,4 | F,,2 F,2 B,,4 | B,2 z D G,2 C,2 | F,4 B,,4- | %12
 B,,4 z4 |] %13
V:7
 x8 | x8 | x8 | x8 | x8 | x8 | x8 | x8 | x8 | x8 | z2 _A,2 z4 | x8 | x8 |] %13

